!!!OTL: Dobbin's flowery vale, S. 58
!!!id: I0513
**kern
*clefG2
*k[b-e-]
*c:
{8ee-
8dd
=1
4cc
8cc
8b-
4g
8f
8e-
=2
4f
4g
4.B-
8c
=3
4e-
4f
8g
8f
8g
8b-
=4
2.cc}
=5
{8ee-
8dd
=6
4cc
8cc
8b-
4g
8f
8e-
=7
4f
4g
4.B-
8c
=8
4e-
8f
8e-
4.c
8c
=9
2.c}
=10
{4g
=11
4.b-
8g
4b-
4cc
=12
4.ee-
8cc
4dd
8ee-
8dd
=13
4.cc
8b-
8g
8f
8g
8b-
=14
2.cc}
=15
{8ee-
8dd
=16
4cc
8cc
8b-
4g
8f
8e-
=17
4f
4g
4.B-
8c
=18
4e-
8f
8e-
4.c
8c
=19
2.c}
==
*-
!!!minrhy: 8
!!!meters: 4/4 ]  ZZ[4
!!!cut: Dobbin's flowery vale, S. 58
!!!reg: Irland
!!!trd: O BOYLE, Sean: 25 Irish Folksongs, Dublin 1976
!!!rhy1: XX  X_XXX_XX  X_X_X_.X  X_X_XXXX  X__.
!!!rhy2: XX  X_XXX_XX  X_X_X_.X  X_XXX_.X  X__.
!!!key: I0513  08  C 4/4 ]  ZZ[4
!!!mod: SECHSTONSKALA MOLL ?]  AMBITUS[11
!!!kad: +11+11
!!!akz: +154-7b3b5+1+1_+154-7b3b111_7b7b+3b+2+15+1+1_+154-7b3b111_
!!!fot: 'a__b__c__b__
!!!for: 'a__b__c__b__
!!!fok: 'Vd_Sd_~a_Sd_
!! PHRAS[AUFTAKTIG]
!!!fkt: "Irish Street Ballad", erz&auml;hlendes, historisches Lied
!! IRISCHE VKL.
!! PR[10] 2K[2] 2G[21] 3K[13] 3G[4] 4A[2] 4Ü[0] 5A[2] 6K[0] 6G[0]
!! 7K[0] 7G[0] 8A[0] MEHR[0] SI[45] ABS[94] SR[23] SP[21]
!! ST[16] 2k[0] 2g[20] 3k[15] 3g[5] 4d[4] 4ü[0] 5d[0] 6k[0] 6g[0]
!! 7k[0] 7g[0] 8d[1] mehr[0] si[46] dm[-1] sr[20] sp[26]
!! 1F[2] 2F[49] 3F[32] 4F[0] LF[0] 2P[0] 3P[4] 4P[0] TRI[0] DF[5] AB[95]
!! TF[0] U3K[0] U3[0] U4[0] U4Ü[0] U5[0] U6K[0] U6[0] U7K[0] U7[0]
!! N1[11] N2K[0] N2[2] N3K[0] N3[13] N4[0] N4Ü[0] N5[25] N6K[0] N6[15]
!!!n7k: 0] N7[4] O1[17] O2K[0] O2[8] O3K[0] O3[5] HÖ[0
!!!RNB: symbol: &auml;      = a umlaut  (UTF-8: Å„)
